X: 37939
T: Spagnoletta
R: jig
M: 6/8
K: Cmajor
V:1
A|c>Bc d>cd|e3c>de|f2e d>cd|e3c2:|
|:e|c>de c>de|d3d2d|1 e>dc dc2|B3B2:|2 e>dc dB2|A3A2||
|:a|a>gf e2a|a>gf e2e|e>dc B>AB|A3A2:|
V:2
|:z|A3G3|A3-A>Bc|d3A2B|c3A2:|
|:z|e>fg e>fg|f>eff2d|1 c3B2A|G3G2:|2 c>BA A2G|A3A2||
|:z|E3 A>GF|E3 A>GF|A>GE D2B|E3-E2:|

